X: 17118
T: Heikin Polkka
R: polka
M: 2/4
K: Dmajor
L:1/16
AA|:"D"A2D2 F2DF|A2D2 F2DF|"A7"G2E2 C2E2|"D"D2d2 "A7"cdcB|
"D"A2D2 F2DF|A2D2 F2DF|"A7"G2E2 C2E2|1 "D"E2D2 D2"A7"AA:|2 "D"E2D2 D4||
|:"G"G2B2 G2B2|G2B2 BdcB|G2B2 G2B2|G2B2 BdcB|
"D"A2D2 F2DF|A2D2 F2DF|"A7"G2E2 C2E2|1 "D"E2D2 D4:|2 "D"E2D2 D2dc||
K:Bmin
|:"Bm"B2Bd f2f2|b2f2 "Em"gfed|"F#7"c2cd e2e2|fedc "Bm"d2B2|
"Bm"B2Bd f2f2|b2f2 "Em"gfed|"F#7"c2cd fedc|1 "Bm"B2B2 B2dc:|2 "Bm"B2B2 B2AA||

